X: 1
T: Quilty Shore, The
M: 6/8
L: 1/8
R: jig
K: Gdor
B2G AGF|DGG DGA|BAB ~c3|dge fdc|
B2G AGF|DGG DGA|BAB cAF|AGF G2A:|
=B3 c3|dge fdc|de^f ~g3|gag fdc|
=BAB ~c3|dge fdc|BAB cAF|AGF G2A|
=B3 c3|dge fdc|de^f ~g3|gag fdc|
dga bag|fdg fdc|BAB cAF|AGF G3|
